Origami/22x22/apps/mcomix.svg

<svg width="22" height="22" version="1.1" viewBox="0 0 22 22" xmlns="http://www.w3.org/2000/svg">
 <path d="m11 3.5a8 8 0 0 1 0.613971 0.0257354 8 8 0 0 0 -0.613971 -0.0257354za8 8 0 0 0 -7.0340073 4.2049633 8 8 0 0 1 7.0340073 -4.2049633zm0.998162 0.07261a8 8 0 0 1 0.419118 0.056985 8 8 0 0 0 -0.419118 -0.056985zm0.742647 0.129596a8 8 0 0 1 0.462317 0.1102941 8 8 0 0 0 -0.462317 -0.1102942zm0.743567 0.204044a8 8 0 0 1 0.477022 0.1663604 8 8 0 0 0 -0.477022 -0.1663604zm0.708639 0.2693015a8 8 0 0 1 0.508272 0.2362132 8 8 0 0 0 -0.508272 -0.2362132zm0.657169 0.3216911a8 8 0 0 1 0.540441 0.3198529 8 8 0 0 0 -0.540441 -0.3198529zm0.67647 0.4172793a8 8 0 0 1 0.513787 0.3786767 8 8 0 0 0 -0.513787 -0.3786767zm0.605699 0.4595591a8 8 0 0 1 0.504596 0.4549632 8 8 0 0 0 -0.504596 -0.4549632zm0.576286 0.5321689a8 8 0 0 1 0.46967 0.5183826 8 8 0 0 0 -0.46967 -0.5183826zm-9.708639 0.4172795a4 4 0 0 0 -3.0542279 1.4163605 8 8 0 0 0 -9.177e-4 9.412e-4 8 8 0 0 0 -0.9448544 3.7591689 8 8 0 0 0 8 8 8 8 0 0 0 8 -8 8 8 0 0 0 -0.931986 -3.7371322 4 4 0 0 0 -9.41e-4 -0.00184 4 4 0 0 0 -3.067073 -1.4374984 4 4 0 0 0 -4 3.9999996 4 4 0 0 0 0.01195 0.235295h-0.02023a4 4 0 0 0 0.00828 -0.235295 4 4 0 0 0 -4 -3.9999996zm11.067096 1.4375003a8 8 0 0 0 -0.400736 -0.6755516 8 8 0 0 1 0.400736 0.6755516zm-0.847427-1.2821695a8 8 0 0 1 0.439338 0.5946692 8 8 0 0 0 -0.439338 -0.5946692z" style="opacity:.2"/>
 <path d="m17 5.5a5 5 0 0 0 -5 5 5 5 0 0 0 5 5 5 5 0 0 0 5 -5 5 5 0 0 0 -5 -5z" style="opacity:.2"/>
 <path d="m17 5a5 5 0 0 0 -5 5 5 5 0 0 0 5 5 5 5 0 0 0 5 -5 5 5 0 0 0 -5 -5z" style="fill:#f8bb88"/>
 <path d="m 17,5 a 5,5 0 0 0 -5,5 5,5 0 0 0 0.01074,0.207031 A 5,5 0 0 1 17,5.5 5,5 0 0 1 21.989258,10.292969 5,5 0 0 0 22,10 5,5 0 0 0 17,5 Z" style="fill:#ffffff;opacity:.2"/>
 <path d="m17 7.5a3.0000001 3.0000001 0 0 0 -3 3 3.0000001 3.0000001 0 0 0 3 3 3.0000001 3.0000001 0 0 0 3 -3 3.0000001 3.0000001 0 0 0 -3 -3z" style="opacity:.1"/>
 <path d="m17 7a3.0000001 3.0000001 0 0 0 -3 3 3.0000001 3.0000001 0 0 0 3 3 3.0000001 3.0000001 0 0 0 3 -3 3.0000001 3.0000001 0 0 0 -3 -3z" style="fill:#986135"/>
 <path d="m5 5.5a5 5 0 0 0 -5 5 5 5 0 0 0 5 5 5 5 0 0 0 5 -5 5 5 0 0 0 -5 -5z" style="opacity:.2"/>
 <path d="m5 5a5 5 0 0 0 -5 5 5 5 0 0 0 5 5 5 5 0 0 0 5 -5 5 5 0 0 0 -5 -5z" style="fill:#f8bb88"/>
 <path d="M 5,5 A 5,5 0 0 0 0,10 5,5 0 0 0 0.01074219,10.207031 5,5 0 0 1 5,5.5 5,5 0 0 1 9.989258,10.292969 5,5 0 0 0 10,10 5,5 0 0 0 5,5 Z" style="fill:#ffffff;opacity:.2"/>
 <path d="M 4.9999994,7.5 A 3.0000001,3.0000001 0 0 0 2,10.5 3.0000001,3.0000001 0 0 0 4.9999994,13.5 3.0000001,3.0000001 0 0 0 8,10.5 3.0000001,3.0000001 0 0 0 4.9999994,7.5 Z" style="opacity:.1"/>
 <path d="M 4.9999994,7 A 3.0000001,3.0000001 0 0 0 2,10 3.0000001,3.0000001 0 0 0 4.9999994,13 3.0000001,3.0000001 0 0 0 8,10 3.0000001,3.0000001 0 0 0 4.9999994,7 Z" style="fill:#986135"/>
 <path d="M 11,3 A 8,8 0 0 1 11.613971,3.0257354 8,8 0 0 0 11,3 Z m 0,0 A 8,8 0 0 0 3.9659927,7.2049633 8,8 0 0 1 11,3 Z m 0.998162,0.07261 A 8,8 0 0 1 12.41728,3.129595 8,8 0 0 0 11.998162,3.07261 Z m 0.742647,0.129596 A 8,8 0 0 1 13.203126,3.3125001 8,8 0 0 0 12.740809,3.2022059 Z M 13.484376,3.40625 A 8,8 0 0 1 13.961398,3.5726104 8,8 0 0 0 13.484376,3.40625 Z m 0.708639,0.2693015 a 8,8 0 0 1 0.508272,0.2362132 8,8 0 0 0 -0.508272,-0.2362132 z m 0.657169,0.3216911 a 8,8 0 0 1 0.540441,0.3198529 8,8 0 0 0 -0.540441,-0.3198529 z m 0.67647,0.4172793 A 8,8 0 0 1 16.040441,4.7931986 8,8 0 0 0 15.526654,4.4145219 Z M 16.132353,4.874081 A 8,8 0 0 1 16.636949,5.3290442 8,8 0 0 0 16.132353,4.874081 Z m 0.576286,0.5321689 a 8,8 0 0 1 0.46967,0.5183826 8,8 0 0 0 -0.46967,-0.5183826 z M 7,5.8235294 A 4,4 0 0 0 3.9457721,7.2398899 8,8 0 0 0 3.9448544,7.2408311 8,8 0 0 0 3,11 8,8 0 0 0 11,19 8,8 0 0 0 19,11 8,8 0 0 0 18.068014,7.2628678 4,4 0 0 0 18.067073,7.2610325 4,4 0 0 0 15,5.8235294 4,4 0 0 0 11,9.823529 a 4,4 0 0 0 0.01195,0.235295 l -0.02023,0 A 4,4 0 0 0 11,9.823529 4,4 0 0 0 7,5.8235294 Z M 18.067096,7.2610297 A 8,8 0 0 0 17.66636,6.5854781 8,8 0 0 1 18.067096,7.2610297 Z M 17.219669,5.9788602 a 8,8 0 0 1 0.439338,0.5946692 8,8 0 0 0 -0.439338,-0.5946692 z" style="fill:#f59d56"/>
 <path d="M 11,3.500176 A 8,8 0 0 0 3.9448529,7.7409849 4,4 0 0 1 7,6.3237054 4,4 0 0 1 11,10.323705 4,4 0 0 1 15,6.3237054 4,4 0 0 1 18.068014,7.7630438 8,8 0 0 0 11,3.500176 Z m 0,6.823529 A 4,4 0 0 1 10.9917,10.559 l 0.02023,0 A 4,4 0 0 1 11,10.323705 Z" style="opacity:.1"/>
 <path d="M 11,3 A 8,8 0 0 0 3.9448529,7.2408089 4,4 0 0 1 7,5.8235294 4,4 0 0 1 11,9.823529 4,4 0 0 1 15,5.8235294 4,4 0 0 1 18.068014,7.2628678 8,8 0 0 0 11,3 Z m 0,6.823529 a 4,4 0 0 1 -0.0083,0.235295 l 0.02023,0 A 4,4 0 0 1 11,9.823529 Z" style="fill:#986135"/>
 <circle cx="7.5" cy="12" r="1.5" style="opacity:.1"/>
 <circle cx="7.5" cy="11.5" r="1.5" style="fill:#3f3f3f"/>
 <circle cx="14.5" cy="12" r="1.5" style="opacity:.1"/>
 <circle cx="14.5" cy="11.5" r="1.5" style="fill:#3f3f3f"/>
 <path d="m7.5 16s1.5 1 3.5 1 3.5-1 3.5-1" style="fill:none;opacity:.1;stroke-linecap:round;stroke-linejoin:round;stroke:#000000"/>
 <path d="m7.5 15.5s1.5 1 3.5 1 3.5-1 3.5-1" style="fill:none;stroke-linecap:round;stroke-linejoin:round;stroke:#3f3f3f"/>
 <path d="M 11,3 A 8,8 0 0 0 3.9453125,7.2402344 4,4 0 0 1 4.6523438,6.5898438 8,8 0 0 1 11,3.4414062 8,8 0 0 1 17.347656,6.59375 4,4 0 0 1 18.068359,7.2636719 8,8 0 0 0 11,3 Z m 0.01172,7.042969 a 4,4 0 0 0 -0.002,0.01563 l 0.002,0 a 4,4 0 0 1 0,-0.01563 z" style="fill:#ffffff;opacity:.1"/>
</svg>

<svg xmlns="http://www.w3.org/2000/svg" width="22" height="22" version="1.1" viewBox="0 0 22 22">
 <path style="opacity:0.2" d="M 11,3.5 A 8,8 0 0 1 11.613971,3.5257354 8,8 0 0 0 11,3.5 Z m 0,0 A 8,8 0 0 0 3.9659927,7.7049633 8,8 0 0 1 11,3.5 Z m 0.998162,0.07261 A 8,8 0 0 1 12.41728,3.629595 8,8 0 0 0 11.998162,3.57261 Z m 0.742647,0.129596 A 8,8 0 0 1 13.203126,3.8125001 8,8 0 0 0 12.740809,3.7022059 Z M 13.484376,3.90625 A 8,8 0 0 1 13.961398,4.0726104 8,8 0 0 0 13.484376,3.90625 Z m 0.708639,0.2693015 a 8,8 0 0 1 0.508272,0.2362132 8,8 0 0 0 -0.508272,-0.2362132 z m 0.657169,0.3216911 a 8,8 0 0 1 0.540441,0.3198529 8,8 0 0 0 -0.540441,-0.3198529 z m 0.67647,0.4172793 A 8,8 0 0 1 16.040441,5.2931986 8,8 0 0 0 15.526654,4.9145219 Z M 16.132353,5.374081 A 8,8 0 0 1 16.636949,5.8290442 8,8 0 0 0 16.132353,5.374081 Z m 0.576286,0.5321689 a 8,8 0 0 1 0.46967,0.5183826 8,8 0 0 0 -0.46967,-0.5183826 z M 7,6.3235294 A 4,4 0 0 0 3.9457721,7.7398899 8,8 0 0 0 3.9448544,7.7408311 8,8 0 0 0 3,11.5 a 8,8 0 0 0 8,8 8,8 0 0 0 8,-8 8,8 0 0 0 -0.931986,-3.7371322 4,4 0 0 0 -9.41e-4,-0.00184 A 4,4 0 0 0 15,6.3235294 a 4,4 0 0 0 -4,3.9999996 4,4 0 0 0 0.01195,0.235295 l -0.02023,0 A 4,4 0 0 0 11,10.323529 4,4 0 0 0 7,6.3235294 Z M 18.067096,7.7610297 A 8,8 0 0 0 17.66636,7.0854781 8,8 0 0 1 18.067096,7.7610297 Z M 17.219669,6.4788602 a 8,8 0 0 1 0.439338,0.5946692 8,8 0 0 0 -0.439338,-0.5946692 z"/>
 <path style="opacity:0.2" d="m 17,5.5 a 5,5 0 0 0 -5,5 5,5 0 0 0 5,5 5,5 0 0 0 5,-5 5,5 0 0 0 -5,-5 z"/>
 <path style="fill:#f8bb88" d="m 17,5 a 5,5 0 0 0 -5,5 5,5 0 0 0 5,5 5,5 0 0 0 5,-5 5,5 0 0 0 -5,-5 z"/>
 <path style="opacity:0.2;fill:#ffffff" d="m 17,5 a 5,5 0 0 0 -5,5 5,5 0 0 0 0.01074,0.207031 A 5,5 0 0 1 17,5.5 5,5 0 0 1 21.989258,10.292969 5,5 0 0 0 22,10 5,5 0 0 0 17,5 Z"/>
 <path style="opacity:0.1" d="m 17,7.5 a 3.0000001,3.0000001 0 0 0 -3,3 3.0000001,3.0000001 0 0 0 3,3 3.0000001,3.0000001 0 0 0 3,-3 3.0000001,3.0000001 0 0 0 -3,-3 z"/>
 <path style="fill:#986135" d="m 17,7 a 3.0000001,3.0000001 0 0 0 -3,3 3.0000001,3.0000001 0 0 0 3,3 3.0000001,3.0000001 0 0 0 3,-3 3.0000001,3.0000001 0 0 0 -3,-3 z"/>
 <path style="opacity:0.2" d="m 5,5.5 a 5,5 0 0 0 -5,5 5,5 0 0 0 5,5 5,5 0 0 0 5,-5 5,5 0 0 0 -5,-5 z"/>
 <path style="fill:#f8bb88" d="M 5,5 A 5,5 0 0 0 0,10 5,5 0 0 0 5,15 5,5 0 0 0 10,10 5,5 0 0 0 5,5 Z"/>
 <path style="opacity:0.2;fill:#ffffff" d="M 5,5 A 5,5 0 0 0 0,10 5,5 0 0 0 0.01074219,10.207031 5,5 0 0 1 5,5.5 5,5 0 0 1 9.989258,10.292969 5,5 0 0 0 10,10 5,5 0 0 0 5,5 Z"/>
 <path style="opacity:0.1" d="M 4.9999994,7.5 A 3.0000001,3.0000001 0 0 0 2,10.5 3.0000001,3.0000001 0 0 0 4.9999994,13.5 3.0000001,3.0000001 0 0 0 8,10.5 3.0000001,3.0000001 0 0 0 4.9999994,7.5 Z"/>
 <path style="fill:#986135" d="M 4.9999994,7 A 3.0000001,3.0000001 0 0 0 2,10 3.0000001,3.0000001 0 0 0 4.9999994,13 3.0000001,3.0000001 0 0 0 8,10 3.0000001,3.0000001 0 0 0 4.9999994,7 Z"/>
 <path style="fill:#f59d56" d="M 11,3 A 8,8 0 0 1 11.613971,3.0257354 8,8 0 0 0 11,3 Z m 0,0 A 8,8 0 0 0 3.9659927,7.2049633 8,8 0 0 1 11,3 Z m 0.998162,0.07261 A 8,8 0 0 1 12.41728,3.129595 8,8 0 0 0 11.998162,3.07261 Z m 0.742647,0.129596 A 8,8 0 0 1 13.203126,3.3125001 8,8 0 0 0 12.740809,3.2022059 Z M 13.484376,3.40625 A 8,8 0 0 1 13.961398,3.5726104 8,8 0 0 0 13.484376,3.40625 Z m 0.708639,0.2693015 a 8,8 0 0 1 0.508272,0.2362132 8,8 0 0 0 -0.508272,-0.2362132 z m 0.657169,0.3216911 a 8,8 0 0 1 0.540441,0.3198529 8,8 0 0 0 -0.540441,-0.3198529 z m 0.67647,0.4172793 A 8,8 0 0 1 16.040441,4.7931986 8,8 0 0 0 15.526654,4.4145219 Z M 16.132353,4.874081 A 8,8 0 0 1 16.636949,5.3290442 8,8 0 0 0 16.132353,4.874081 Z m 0.576286,0.5321689 a 8,8 0 0 1 0.46967,0.5183826 8,8 0 0 0 -0.46967,-0.5183826 z M 7,5.8235294 A 4,4 0 0 0 3.9457721,7.2398899 8,8 0 0 0 3.9448544,7.2408311 8,8 0 0 0 3,11 8,8 0 0 0 11,19 8,8 0 0 0 19,11 8,8 0 0 0 18.068014,7.2628678 4,4 0 0 0 18.067073,7.2610325 4,4 0 0 0 15,5.8235294 4,4 0 0 0 11,9.823529 a 4,4 0 0 0 0.01195,0.235295 l -0.02023,0 A 4,4 0 0 0 11,9.823529 4,4 0 0 0 7,5.8235294 Z M 18.067096,7.2610297 A 8,8 0 0 0 17.66636,6.5854781 8,8 0 0 1 18.067096,7.2610297 Z M 17.219669,5.9788602 a 8,8 0 0 1 0.439338,0.5946692 8,8 0 0 0 -0.439338,-0.5946692 z"/>
 <path style="opacity:0.1" d="M 11,3.500176 A 8,8 0 0 0 3.9448529,7.7409849 4,4 0 0 1 7,6.3237054 4,4 0 0 1 11,10.323705 4,4 0 0 1 15,6.3237054 4,4 0 0 1 18.068014,7.7630438 8,8 0 0 0 11,3.500176 Z m 0,6.823529 A 4,4 0 0 1 10.9917,10.559 l 0.02023,0 A 4,4 0 0 1 11,10.323705 Z"/>
 <path style="fill:#986135" d="M 11,3 A 8,8 0 0 0 3.9448529,7.2408089 4,4 0 0 1 7,5.8235294 4,4 0 0 1 11,9.823529 4,4 0 0 1 15,5.8235294 4,4 0 0 1 18.068014,7.2628678 8,8 0 0 0 11,3 Z m 0,6.823529 a 4,4 0 0 1 -0.0083,0.235295 l 0.02023,0 A 4,4 0 0 1 11,9.823529 Z"/>
 <circle style="opacity:0.1" cx="7.5" cy="12" r="1.5"/>
 <circle style="fill:#3f3f3f" cx="7.5" cy="11.5" r="1.5"/>
 <circle style="opacity:0.1" cx="14.5" cy="12" r="1.5"/>
 <circle style="fill:#3f3f3f" cx="14.5" cy="11.5" r="1.5"/>
 <path style="opacity:0.1;fill:none;stroke:#000000;stroke-linecap:round;stroke-linejoin:round" d="m 7.5,16 c 0,0 1.5,1 3.5,1 2,0 3.5,-1 3.5,-1"/>
 <path style="fill:none;stroke:#3f3f3f;stroke-linecap:round;stroke-linejoin:round" d="m 7.5,15.5 c 0,0 1.5,1 3.5,1 2,0 3.5,-1 3.5,-1"/>
 <path style="opacity:0.1;fill:#ffffff" d="M 11,3 A 8,8 0 0 0 3.9453125,7.2402344 4,4 0 0 1 4.6523438,6.5898438 8,8 0 0 1 11,3.4414062 8,8 0 0 1 17.347656,6.59375 4,4 0 0 1 18.068359,7.2636719 8,8 0 0 0 11,3 Z m 0.01172,7.042969 a 4,4 0 0 0 -0.002,0.01563 l 0.002,0 a 4,4 0 0 1 0,-0.01563 z"/>
</svg>
